assets/static/svgs/currencies/icon-cardano.svg

<svg width="1em" height="1em"  viewBox="0 0 24 24" fill="none" xmlns="http://www.w3.org/2000/svg">
<symbol id="item"
width="1em"
height="1em"
viewBox="0 0 24 24"
fill="none"
>
 <circle cx="12" cy="12" r="12" fill="#0033AD"/> <path d="M11.779 3.73232C12.1713 3.52775 12.6502 4.00232 12.4417 4.39427C12.3207 4.71377 11.8617 4.79873 11.6272 4.55519C11.3788 4.32146 11.4598 3.85949 11.779 3.73232ZM7.55932 4.18718C7.79764 4.08908 8.09932 4.30742 8.07502 4.56716C8.10031 4.84913 7.75552 5.05667 7.51261 4.92266C7.19077 4.79801 7.22758 4.27556 7.55932 4.18718V4.18718ZM16.2017 4.93058C15.8292 4.88558 15.7703 4.30004 16.1289 4.18214C16.407 4.04651 16.6621 4.30085 16.7028 4.56446C16.6445 4.78955 16.456 4.99565 16.2017 4.93058ZM8.51944 5.98313C8.91787 5.73113 9.4864 6.10643 9.42511 6.56921C9.40441 7.03649 8.78377 7.30721 8.43358 6.99131C8.095 6.74318 8.1463 6.17393 8.51944 5.98313ZM14.6017 6.25052C14.7795 5.79242 15.4998 5.77856 15.7021 6.22451C15.9021 6.57155 15.6561 7.0013 15.2998 7.11929C14.8278 7.2074 14.3795 6.69719 14.6017 6.25052ZM11.2708 7.09328C11.267 6.69953 11.6256 6.40613 11.9998 6.37931C12.2481 6.42908 12.5186 6.53483 12.6251 6.7853C12.8235 7.13081 12.6473 7.60655 12.2887 7.76513C12.1248 7.85702 11.9309 7.82255 11.7523 7.81184C11.4794 7.67783 11.2495 7.41503 11.2708 7.09328V7.09328ZM4.99558 7.66703C5.35954 7.44329 5.85058 7.85162 5.71279 8.24699C5.63692 8.58899 5.1772 8.72813 4.9144 8.50979C4.63387 8.30522 4.67833 7.81337 4.99558 7.66703V7.66703ZM18.4708 7.66631C18.7796 7.42655 19.2892 7.70159 19.2524 8.09147C19.2731 8.44697 18.8325 8.71508 18.526 8.53202C18.1884 8.38028 18.1539 7.86089 18.4708 7.66631V7.66631ZM13.0356 8.37416C13.5451 8.1911 14.1504 8.41016 14.4408 8.86448C14.8239 9.41987 14.6201 10.2657 14.0256 10.5844C13.4095 10.9613 12.51 10.6418 12.2824 9.95384C12.0241 9.33797 12.4004 8.56721 13.0356 8.37416V8.37416ZM10.0458 8.43473C10.6105 8.16815 11.3706 8.3918 11.6433 8.96951C11.9644 9.53183 11.7162 10.3148 11.1422 10.6052C10.5676 10.9315 9.75685 10.6841 9.47875 10.0804C9.1669 9.49655 9.44383 8.70356 10.0458 8.43473V8.43473ZM7.05208 9.45821C7.09501 9.09434 7.43827 8.85755 7.78459 8.83307C8.15773 8.87807 8.45581 9.16787 8.4964 9.54551C8.47192 9.91937 8.18302 10.2848 7.78684 10.2825C7.35097 10.3201 6.96883 9.88643 7.05208 9.45821V9.45821ZM15.8944 8.91218C16.3419 8.65172 16.9632 9.03089 16.9434 9.54497C16.974 10.0897 16.2864 10.4735 15.8408 10.154C15.3779 9.88796 15.414 9.13871 15.8944 8.91218V8.91218ZM8.82904 10.8319C9.35239 10.6879 9.9508 10.9346 10.2075 11.4156C10.4886 11.8998 10.3737 12.5725 9.93703 12.9276C9.37696 13.4485 8.34403 13.2394 8.04595 12.5285C7.70341 11.8768 8.11948 11.0034 8.82904 10.8319V10.8319ZM14.4999 10.8292C15.0086 10.6837 15.6063 10.8798 15.8798 11.3433C16.2414 11.8734 16.0688 12.664 15.5304 13.0057C14.9665 13.4026 14.093 13.1942 13.7826 12.5737C13.4064 11.932 13.785 11.0249 14.4999 10.8292V10.8292ZM5.46295 11.434C5.91502 11.263 6.41614 11.7619 6.23299 12.2101C6.12112 12.6184 5.54566 12.7693 5.24839 12.4683C4.90054 12.1856 5.02933 11.5566 5.46295 11.434V11.434ZM17.7165 12.0844C17.7034 11.7098 17.9775 11.3781 18.3616 11.3574C18.6712 11.4064 18.9722 11.6562 18.9477 11.9932C18.9761 12.4384 18.4397 12.741 18.0604 12.5318C17.8827 12.4414 17.7915 12.2591 17.7165 12.0844V12.0844ZM3.24013 11.6539C3.51211 11.5351 3.84853 11.7709 3.78643 12.0729C3.77185 12.4149 3.26695 12.5464 3.08146 12.2606C2.91757 12.0622 3.01567 11.7562 3.24013 11.6539ZM20.389 11.647C20.5805 11.5107 20.8878 11.6087 20.9637 11.8324C21.0924 12.0768 20.8564 12.4116 20.5813 12.3703C20.1952 12.4054 20.0703 11.817 20.389 11.647ZM10.3063 13.2887C11.022 13.1026 11.7913 13.6994 11.7958 14.4363C11.8425 15.181 11.0848 15.8413 10.3522 15.6693C9.78592 15.5781 9.34159 15.0326 9.35995 14.4604C9.35842 13.9131 9.77143 13.4044 10.3063 13.2887ZM13.1406 13.2872C13.867 13.0841 14.6592 13.6916 14.6477 14.4456C14.6861 15.1765 13.952 15.8146 13.2347 15.6696C12.5597 15.5823 12.0617 14.8407 12.2501 14.1856C12.3453 13.7491 12.7099 13.3942 13.1406 13.2872V13.2872ZM7.67587 13.7408C8.17852 13.655 8.64976 14.2158 8.44591 14.6931C8.29723 15.2017 7.55707 15.3396 7.22983 14.9242C6.84598 14.5252 7.13254 13.7959 7.67587 13.7408ZM15.9878 13.7632C16.436 13.5754 16.9862 13.9632 16.9517 14.4496C16.9697 14.9851 16.2905 15.3544 15.8522 15.0418C15.3558 14.7612 15.4461 13.9354 15.9878 13.7632V13.7632ZM18.3111 16.0935C18.1356 15.7663 18.4544 15.3327 18.8176 15.3933C18.9984 15.3902 19.1249 15.5327 19.2406 15.6522C19.2644 15.8461 19.3042 16.0774 19.1433 16.2268C18.9248 16.5033 18.4298 16.4244 18.3111 16.0935ZM4.99405 15.4843C5.33353 15.2584 5.82205 15.5954 5.74573 15.9923C5.70514 16.3433 5.26297 16.5439 4.97173 16.3447C4.65916 16.1639 4.67068 15.6491 4.99405 15.4843V15.4843ZM11.7009 16.2191C12.1453 16.023 12.7115 16.4099 12.6693 16.8994C12.7023 17.4403 12.002 17.8149 11.5675 17.4901C11.0848 17.2112 11.1653 16.3906 11.7009 16.2191V16.2191ZM8.5945 16.9438C8.97304 16.7446 9.481 17.0886 9.44653 17.5122C9.45805 17.8601 9.11857 18.1565 8.77531 18.1051C8.491 18.099 8.3056 17.8441 8.21443 17.6018C8.21911 17.3376 8.32783 17.0434 8.5945 16.9438V16.9438ZM14.8868 16.9499C15.276 16.7093 15.8292 17.0548 15.7924 17.5079C15.8024 17.9814 15.1772 18.2847 14.8148 17.9737C14.4639 17.7298 14.5067 17.1438 14.8868 16.9499ZM15.981 19.655C15.8078 19.393 16.0117 19.0774 16.2928 19.0177C16.5189 19.0636 16.758 19.2337 16.7104 19.4957C16.6775 19.8504 16.1587 19.9592 15.981 19.655V19.655ZM7.29499 19.4275C7.36393 19.2199 7.53097 19.0135 7.77541 19.0675C8.13172 19.0928 8.23747 19.6298 7.92562 19.7953C7.64518 19.9844 7.31983 19.7255 7.29499 19.4275V19.4275ZM11.4855 19.6657C11.5537 19.3586 11.9513 19.2092 12.2134 19.3723C12.3866 19.4467 12.4371 19.6405 12.4816 19.8052C12.4578 19.8909 12.4366 19.9768 12.4157 20.0626C12.3084 20.1897 12.1706 20.3169 11.992 20.3123C11.6602 20.3512 11.3608 19.9761 11.4855 19.6657Z" fill="var(--color--bulma-100)"/> 
</symbol>
</svg>

<svg width="1em" height="1em"    viewBox="0 0 24 24" fill="none" xmlns="http://www.w3.org/2000/svg">
<symbol id="item"
width="1em"
height="1em"
viewBox="0 0 24 24"
fill="none"
>
<circle cx="12" cy="12" r="12" fill="#0033AD"/><path d="M11.779 3.732c.392-.204.871.27.663.662-.121.32-.58.405-.815.161-.248-.234-.167-.696.152-.823Zm-4.22.455c.239-.098.54.12.516.38.025.282-.32.49-.562.356-.322-.125-.285-.647.046-.736Zm8.643.744c-.373-.045-.432-.631-.073-.749.278-.135.533.119.574.382-.058.226-.247.432-.501.367ZM8.519 5.983c.399-.252.967.123.906.586-.02.467-.641.738-.991.422-.339-.248-.288-.817.085-1.008Zm6.083.268c.178-.459.898-.472 1.1-.026.2.347-.046.776-.402.894-.472.088-.92-.422-.698-.868Zm-3.331.842c-.004-.393.355-.687.729-.714.248.05.519.156.625.406.198.346.022.822-.336.98-.164.092-.358.058-.537.047-.273-.134-.503-.397-.481-.719Zm-6.275.574c.364-.224.855.185.717.58-.076.342-.536.481-.799.263-.28-.205-.236-.697.082-.843Zm13.475 0c.309-.24.818.035.781.424.021.356-.42.624-.726.441-.338-.152-.372-.671-.055-.866Zm-5.435.707c.51-.183 1.114.036 1.405.49.383.556.18 1.402-.415 1.72-.617.377-1.516.058-1.744-.63-.258-.616.118-1.387.754-1.58Zm-2.99.06c.565-.266 1.325-.042 1.597.536.321.562.073 1.345-.5 1.635-.575.326-1.386.08-1.664-.525-.312-.583-.035-1.376.567-1.645ZM7.052 9.459c.043-.364.386-.6.733-.625a.807.807 0 0 1 .711.713c-.024.373-.313.739-.71.737-.435.037-.817-.397-.734-.825Zm8.842-.546c.448-.26 1.07.119 1.05.633.03.545-.658.928-1.103.609-.463-.266-.427-1.015.053-1.242Zm-7.065 1.92c.523-.144 1.122.103 1.378.584.282.484.167 1.156-.27 1.512-.56.52-1.593.311-1.891-.4-.343-.651.073-1.525.783-1.696Zm5.67-.003c.51-.145 1.107.05 1.38.514.362.53.19 1.321-.349 1.663-.563.397-1.437.188-1.747-.432-.377-.642.002-1.55.717-1.745Zm-9.036.605c.452-.171.953.328.77.776-.112.408-.687.56-.985.258-.347-.282-.219-.911.215-1.034Zm12.253.65a.692.692 0 0 1 .646-.727c.31.05.61.3.586.636.028.445-.508.748-.888.539-.177-.09-.268-.273-.343-.448Zm-14.476-.43c.272-.119.609.117.546.419-.014.342-.519.473-.705.188-.163-.199-.065-.505.16-.607Zm17.149-.007c.192-.136.499-.038.575.185.128.245-.108.58-.383.538-.386.035-.51-.553-.192-.723Zm-10.083 1.642c.716-.186 1.485.41 1.49 1.147.046.745-.711 1.405-1.444 1.233-.566-.09-1.01-.636-.992-1.209a1.227 1.227 0 0 1 .946-1.171Zm2.835-.002c.726-.203 1.518.405 1.507 1.159.038.73-.696 1.369-1.413 1.224-.675-.088-1.173-.83-.985-1.484.095-.437.46-.792.89-.899Zm-5.465.454c.503-.086.974.475.77.952-.149.509-.889.647-1.216.231-.384-.399-.097-1.128.446-1.183Zm8.312.022c.448-.188.998.2.964.687.018.535-.662.904-1.1.592-.496-.28-.406-1.107.136-1.279Zm2.323 2.33c-.175-.327.143-.76.507-.7.18-.003.307.14.423.26.023.193.063.424-.098.574-.218.276-.713.197-.832-.134Zm-13.317-.609c.34-.226.828.111.752.508-.04.351-.483.552-.774.353-.313-.181-.301-.696.022-.86Zm6.707.735c.444-.196 1.01.19.968.68.033.541-.667.916-1.101.591-.483-.279-.403-1.1.133-1.27Zm-3.107.725c.379-.2.887.145.853.568.011.348-.328.645-.672.593-.284-.006-.47-.26-.56-.503.004-.264.113-.559.38-.658Zm6.293.006c.389-.24.942.105.905.558.01.473-.615.777-.977.466-.351-.244-.308-.83.072-1.024Zm1.094 2.705c-.173-.262.03-.578.312-.637.226.046.465.216.417.478-.033.354-.551.463-.729.159Zm-8.686-.228c.069-.207.236-.413.48-.36.357.026.462.563.15.728-.28.19-.605-.07-.63-.368Zm4.19.239c.069-.307.466-.457.728-.294.174.075.224.268.269.433a8.304 8.304 0 0 0-.066.258c-.108.127-.245.254-.424.25-.332.038-.631-.337-.507-.647Z" fill="var(--color--bulma-100)"/>
</symbol>
</svg>
